img/image/tg-icon.svg

<svg width="44" height="43" fill="none" xmlns="http://www.w3.org/2000/svg"><rect x="1" y="1" width="42" height="41" rx="20.5" fill="#37A6EA"/><g clip-path="url(#a)" fill="#fff"><path d="M22 34c6.617 0 12-5.383 12-12s-5.383-12-12-12-12 5.383-12 12 5.383 12 12 12Zm0-22.5c5.79 0 10.5 4.71 10.5 10.5S27.79 32.5 22 32.5 11.5 27.79 11.5 22 16.21 11.5 22 11.5Z"/><path d="m17.896 24.155 1.568-.681-.44.441a.75.75 0 0 0-.22.53v2.935c0 .672.812.998 1.28.53l1.574-1.574 3.43 1.715a.75.75 0 0 0 1.073-.537l1.957-10.761a.751.751 0 0 0-1.012-.833L14.39 20.897a.75.75 0 0 0-.13 1.331l2.934 1.872c.21.134.475.155.702.055Zm8.506-6.347-1.537 8.455-3.02-1.509a.748.748 0 0 0-.865.141l-.676.676v-.813l3.007-3.007c.583-.583-.073-1.545-.829-1.218l-4.817 2.09-1.354-.864 10.091-3.951Z"/></g><rect x="1" y="1" width="42" height="41" rx="20.5" stroke="#fff" stroke-width="2"/><defs><clipPath id="a"><path fill="#fff" transform="translate(10 10)" d="M0 0h24v24H0z"/></clipPath></defs></svg>

<svg width="44" height="43" viewBox="0 0 44 43" fill="none" xmlns="http://www.w3.org/2000/svg">
<rect x="1" y="1" width="42" height="41" rx="20.5" fill="#37A6EA"/>
<g clip-path="url(#clip0_17234_617)">
<path d="M22 34C28.617 34 34 28.617 34 22C34 15.383 28.617 10 22 10C15.383 10 10 15.383 10 22C10 28.617 15.383 34 22 34ZM22 11.5C27.79 11.5 32.5 16.21 32.5 22C32.5 27.79 27.79 32.5 22 32.5C16.21 32.5 11.5 27.79 11.5 22C11.5 16.21 16.21 11.5 22 11.5Z" fill="white"/>
<path d="M17.896 24.155L19.464 23.474L19.024 23.915C18.883 24.056 18.804 24.247 18.804 24.445V27.38C18.804 28.052 19.616 28.378 20.084 27.91L21.658 26.336L25.088 28.051C25.532 28.273 26.069 28.01 26.161 27.514L28.118 16.753C28.221 16.174 27.651 15.706 27.106 15.92L14.39 20.897C13.82 21.119 13.744 21.899 14.26 22.228L17.194 24.1C17.404 24.234 17.669 24.255 17.896 24.155ZM26.402 17.808L24.865 26.263L21.845 24.754C21.553 24.608 21.205 24.669 20.98 24.895L20.304 25.571V24.758L23.311 21.751C23.894 21.168 23.238 20.206 22.482 20.533L17.665 22.623L16.311 21.759L26.402 17.808Z" fill="white"/>
</g>
<rect x="1" y="1" width="42" height="41" rx="20.5" stroke="white" stroke-width="2"/>
<defs>
<clipPath id="clip0_17234_617">
<rect width="24" height="24" fill="white" transform="translate(10 10)"/>
</clipPath>
</defs>
</svg>
